!!!COM:	L van Beethoven
!!!OTL:	String Quartet Op18 No3
**kern	**dynam
*I"Violin II	*
*clefG2	*
*k[f#c#]	*
*D:	*
*M2/2	*
=1	=1
!LO:TX:a:B:t=Allegro	!
1r	.
=2	=2
1r	.
=3!|:	=3!|:
(1f#	p
=4	=4
1g	.
=5	=5
1a	.
=6	=6
1g	.
=7	=7
1f#	.
=8	=8
1e)	.
=9	=9
[1A	.
=10	=10
4A	.
4r	.
2r	.
=11	=11
1r	.
=12	=12
1r	.
=13	=13
!LO:TX:t=p cresc.	!
(1a	<
=14	=14
[1gg)	.
=15	=15
8ggL	.
(8ff#	.
8ee	.
8dd	.
8cc#L	.
8dd	.
8ff#	.
8dd)	.
=16	=16
(1d# 1cc	f
=17	=17
4e) 4b	p
4r	.
2r	.
=18	=18
1r	.
=19	=19
1r	.
=20	=20
2r	.
4r	.
[4e	.
=21	=21
(4e	.
4f#)	.
4r	.
[4f#	.
=22	=22
(4f#	.
4g)	.
4r	.
[4g#	.
=23	=23
4g#	.
!LO:TX:t=cresc.	!
[2.a	<
=24	=24
2a	.
[2g	.
=25	=25
4g	.
(4e	.
4d)	.
(4d	.
=26	=26
4B)	p
(4B	.
4A)	.
4A	.
=27	=27
(8AL	.
8d	.
8f#	.
8d	.
8AL	.
8d	.
8f#	.
8d)	.
=28	=28
(8AL	<
8d	.
8f#	.
8d	.
8AL	.
8d	.
8f#	.
8d)	.
=29	=29
(8BL	[
8d	.
8g	.
8d	.
8BL	.
8d	.
8g	.
8d)	.
=30	=30
(8AL	.
8e	.
8g	.
8e	.
8AL	.
8e	.
8g	.
8e)	.
=31	=31
4d	.
4r	.
8r	.
8aa	.
8gg	.
8ff#	.
=32	=32
(8eeL	.
8dd	<
8cc#	.
8dd	.
8cc#L	.
8dd	.
8ee	.
8dd	.
=33	=33
2dd)	.
[2gg)	>
=34	=34
(4gg	]
4ee	.
4cc#	.
4g)	.
=35	=35
4f#	.
4r	.
2r	.
=36	=36
4r	.
(4g	.
4f#)	.
4r	.
=37	=37
4r	.
(4gg	.
4ff#)	.
4f#	.
=38	=38
4r	.
4e	.
4r	.
4e	.
=39	=39
4r	.
4f#	.
2r	.
=40	=40
4r	.
(4e	.
4d)	.
4r	.
=41	=41
4r	.
(4ee	.
4dd)	.
4d	.
=42	=42
4r	.
4c#	.
4r	.
4c#	.
=43	=43
4r	.
4d	.
4r	.
4A	.
=44	=44
4r	.
4A	.
4r	.
4G#	.
=45	=45
4r	.
4A	.
(12ccL	.
12a	.
12b	.
12ccL	sf
12b	.
12a)	.
=46	=46
(12ccL	.
12a	.
12b	.
12ccL	sf
12b	.
12a)	.
(12ccL	.
12a	.
12b	.
12ccL	sf
12b	.
12a)	.
=47	=47
(4g#	.
4e)	.
4A	.
4a	sf
=48	=48
4r	.
4a	sf
4r	.
4a	sf
=49	=49
4g#	.
4r	.
(12ccL	.
12a	.
12b	.
12ccL	sf
12b	.
12a)	.
=50	=50
(12ccL	.
12a	.
12b	.
12ccL	sf
12b	.
12a)	.
(12ccL	.
12a	.
12b	.
12ccL	sf
12b	.
12a)	.
=51	=51
4g#	f
4r	.
2r	.
=52	=52
2.ee	p
8r	.
(16ee	.
16ff#)	.
=53	=53
2.gg#	.
8r	.
(16gg#	.
16aa)	.
=54	=54
4bb	.
4b	.
4b	.
4b	.
=55	=55
!LO:TX:t=cresc.	!
2b	<
2a	.
=56	=56
2a	.
2g#	.
=57	=57
4a	p
4r	.
2r	.
=58	=58
2.e	.
8r	.
(16G#	.
16A)	.
=59	=59
2.B	.
8r	.
(16B	.
16c#)	.
=60	=60
2.d	.
8r	.
(16g#	.
16a)	.
=61	=61
!LO:TX:t=decresc	!
4b	>
4b	.
4b	.
4b	.
=62	=62
2.b	.
8r	.
(16b	.
16cc#)	.
=63	=63
4dd	.
4dd	.
4dd	.
4dd	.
=64	=64
[1dd	pp
=65	=65
[1dd	.
=66	=66
[1dd	.
=67	=67
!LO:TX:t=cresc.	!
1dd	<
=68	=68
4cc	p
2cc	sf
(4cc	.
=69	=69
4b)	.
2b	.
(4b	.
=70	=70
4cc)	.
(4g	.
4g)	.
(4g	.
=71	=71
4g)	.
(4cc	.
4b)	.
(4b	.
=72	=72
4a)	.
2a	sf
(4a	.
=73	=73
4g#)	.
2g#	sf
(4g#	.
=74	=74
4a)	.
[4a	.
4a	.
[4a	.
=75	=75
4a	.
(4a	.
4g#)	.
4g#	.
=76	=76
4ee	f
4ccc#	.
4aa	.
4ee	.
=77	=77
2cc#	.
2b	.
=78	=78
1a#	sf
=79	=79
[1a	sf
=80	=80
(2a	.
4g#	.
4f#	.
=81	=81
4e	.
4d	.
4c#	.
4B)	.
=82	=82
4A	.
4aa	.
4aa	.
4ee	.
=83	=83
2cc#	.
2b	.
=84	=84
1a#	sf
=85	=85
1e	sf
=86	=86
1d	sf
=87	=87
1cc	sf
=88	=88
[1e 1cc#	.
=89	=89
4e 4dd	.
4d	.
4d	.
4d	.
=90	=90
[1a	p
=91	=91
[1a	.
=92	=92
(4a	.
4g#)	.
(4dd	.
4b	.
=93	=93
4a	.
4g#	.
4f#	.
4e)	.
=94	=94
4a	.
4r	.
4r	.
8r	.
!LO:TX:t=cresc.	!
(24a	<
24b	.
24cc#	.
=95	=95
4dd	.
4ee	.
4ff#	.
4ee)	.
=96	=96
[1dd	.
=97	=97
2dd	.
2g#	.
=98	=98
4a	[
(12e	p
12f#	.
12g#	.
12aL	.
12b	.
12cc#	.
12ddL	.
12cc#	.
12b)	.
=99	=99
4a	.
4r	.
2r	.
=100	=100
4r	.
(12e	.
12f#	.
12g#	.
12aL	.
12b	.
12cc#	.
12ddL	.
12cc#	.
12b)	.
=101	=101
4a	.
4r	.
2r	.
=102	=102
4r	.
(12e	<
12f#	.
12g#	.
12aL	.
12b	.
12cc#	.
12ddL	.
12cc#	.
12b)	.
=103	=103
(12aL	.
12g#	.
12f#	.
12eL	.
12f#	.
12g#	.
12aL	.
12b	.
12cc#	.
12ddL	.
12cc#	.
12b)	[
=104	=104
4a	.
4r	.
2r	.
=105	=105
4G	f
4r	.
2r	.
=106	=106
4g	f
4r	.
2r	.
=107	=107
4G	f
4r	.
2r	.
=108	=108
4g	p
4r	.
2r	.
=109	=109
1r	.
=110:|!	=110:|!
4g	p
4r	.
2r	.
=111	=111
1r	.
=112	=112
(1f	.
=113	=113
1g	.
=114	=114
1a	.
=115	=115
1e	.
=116	=116
1f)	.
=117	=117
[1e	.
=118	=118
(2e	<
2d)	.
=119	=119
(2e-	.
[2A)	.
=120	=120
2A	.
2cc	.
=121	=121
[1b-	.
=122	=122
(2.b-	[
8a	.
8g)	.
=123	=123
(4f	.
4e-	.
4d	.
4c)	.
=124	=124
4B-	.
4d	p
4f	.
4r	.
=125	=125
4r	.
(4e-	.
4d)	.
4r	.
=126	=126
2r	.
4r	.
4d	.
=127	=127
4r	.
4c	.
4r	.
4c	.
=128	=128
4r	.
4d	.
2r	.
=129	=129
2r	.
4r	.
(12f	.
12b-	.
12dd)	.
=130	=130
2.ff	.
4r	.
=131	=131
2r	.
4r	.
(12d	.
12g	.
12b-)	.
=132	=132
[2dd	.
8ddL	.
8ee	.
8ff#	.
8gg	.
=133	=133
(8ddL	.
8ee-)	.
8r	.
8ee-	.
(8f#L	.
8dd)	.
8r	.
8dd	.
=134	=134
(4cc	.
4b-)	.
!LO:TX:t=cresc.	!
4r	<
4B- 4d	.
=135	=135
4r	.
4c	.
4r	.
4A 4f#	.
=136	=136
(8gL	f
8d	.
8g	.
8b-	.
8ddL	.
8gg	.
8bb-	.
8aa)	.
=137	=137
(8gg#L	.
8aa	.
8ff	.
8ee	.
8ddL	.
8cc	.
8b	.
8a)	.
=138	=138
1g#	sf
=139	=139
(2.ff	sf
4ee)	.
=140	=140
8eeL	.
(8e	.
8a	.
8cc	.
8eeL	.
8aa	.
8ccc	.
8bb)	.
=141	=141
(8aa#L	.
8bb	.
8gg	.
8ff#	.
8eeL	.
8dd	.
8cc#	.
8b)	.
=142	=142
1a#	sf
=143	=143
(2.gg	sf
4ff#)	.
=144	=144
8ff#L	.
(8d	.
8f#	.
8b	.
8ddL	.
8ee	.
8ff#	.
8ee)	.
=145	=145
(8ddL	.
8ee	.
8dd	.
8cc	.
8bL	.
8cc	.
8b	.
8a)	.
=146	=146
8gL	.
(8B	.
8d	.
8g	.
8bL	.
8cc	.
8dd	.
8cc)	.
=147	=147
(8bL	.
8cc	.
8b	.
8a	.
8gL	.
8a	.
8g	.
8f#)	.
=148	=148
(8e#L	.
8f#	.
8g#	.
8a	.
8bL	.
8g#	.
8f#	.
8e#)	.
=149	=149
(8f#L	.
8g#	.
8a	.
8b	.
8cc#L	.
8dd	.
8cc#	.
8b)	.
=150	=150
(8aL	.
8b	.
8a	.
8g#	.
8f#L	.
8e	.
8d	.
8c#)	.
=151	=151
8B#L	.
(8f#	.
8a	.
8g#	.
8f#L	.
8g#	.
8a	.
8f#)	.
=152	=152
4e#	.
4r	.
2e#	.
=153	=153
12f#L	.
12f#	.
12f#	.
12g#L	.
12g#	.
12g#	.
12aL	.
12a	.
12a	.
12f#L	.
12f#	.
12f#	.
=154	=154
4e#	.
4r	.
12e#L	.
12ee#	.
12ee#	.
12ee#L	.
12ee#	.
12ee#	.
=155	=155
12ff#L	.
12ff#	.
12ff#	.
12gg#L	.
12gg#	.
12gg#	.
12aaL	.
12aa	.
12aa	.
12ff#L	.
12ff#	.
12ff#	.
=156	=156
12ee#L	ff
12e# 12cc#	.
12e# 12cc#	.
12e#L 12cc#	.
12e# 12cc#	.
12e# 12cc#	.
12e#L 12cc#	.
12e# 12cc#	.
12e# 12cc#	.
12e#L 12cc#	.
12e# 12cc#	.
12e# 12cc#	.
=157	=157
12e#L 12cc#	.
12e# 12cc#	.
12e# 12cc#	.
12e#L 12cc#	.
12e# 12cc#	.
12e# 12cc#	.
12e#L 12cc#	.
12e# 12cc#	.
12e# 12cc#	.
12e#L 12cc#	.
12e# 12cc#	.
12e# 12cc#	.
=158	=158
4e# 4cc#	.
4r	.
2r	.
=159	=159
1r	.
=160	=160
(1A	pp
=161	=161
[1g)	.
=162	=162
8gL	.
(8f#	.
8e	.
8d	.
8c#L	.
8d	.
8f#	.
8d)	.
=163	=163
(1c#	.
=164	=164
[1d)	.
=165	=165
[1d	.
=166	=166
(1d	.
=167	=167
1c#)	.
=168	=168
(1e	.
=169	=169
4d)	.
4r	.
2r	.
=170	=170
1r	.
=171	=171
1r	.
=172	=172
(1d	<
=173	=173
[1cc)	.
=174	=174
8ccL	.
(8b	.
8a)	.
8g	.
8f#L	.
8g	.
8b	.
8g)	.
=175	=175
1d	sf
=176	=176
[1a	p
=177	=177
8aL	sf
(8a#	.
8b	.
8a#	.
8bL	.
8a#	.
8b	.
8a#)	.
=178	=178
[1b	p
=179	=179
8bL	sf
(8cc	.
8b	.
8cc	.
8bL	.
8cc	.
8dd	.
8cc)	.
=180	=180
2b-	p
!LO:TX:t=cresc.	!
[2ee	<
=181	=181
8eeL	.
(8dd	.
8cc#	.
8dd	.
8cc#L	.
8dd	.
8ee	.
8dd)	.
=182	=182
(8ddL	.
8cc#	.
8b#	.
8cc#	.
8b#L	.
8cc#	.
8dd	.
8cc#)	.
=183	=183
(8cc#L	.
8b	.
8a#	.
8b	.
8a#L	.
8b	.
8cc#	.
8b)	.
=184	=184
4a	p
4r	.
2r	.
=185	=185
2.a	.
8r	.
(16a	.
16b)	.
=186	=186
2.cc#	.
8r	.
(16cc#	.
16dd)	.
=187	=187
4ee	.
4ee	.
4ee	.
4ee	.
=188	=188
!LO:TX:t=cresc.	!
2ee	<
2dd	.
=189	=189
2b	.
2g	.
=190	=190
4f#	[
4r	.
2r	.
=191	=191
2r	.
2A 2a	.
=192	=192
2r	.
2A 2a	.
=193	=193
2r	.
2A 2a	.
=194	=194
!LO:TX:t=decresc.	!
1r	.
=195	=195
1r	.
=196	=196
1r	.
=197	=197
1r	.
=198	=198
1r	.
=199	=199
1r	.
=200	=200
!LO:TX:t=cresc.	!
1c	<
=201	=201
4c	[
2f	sf
(4f	.
=202	=202
4e)	.
2e	sf
(4e	.
=203	=203
4f)	.
[4c	.
4c	.
[4c	.
=204	=204
4c	.
(4f	.
4e)	.
(4e	.
=205	=205
4A)	.
2d	sf
(4d	.
=206	=206
4c#)	.
2c#	sf
(4c#	.
=207	=207
4d)	.
(4a	.
4g)	.
(4g	.
=208	=208
4a)	.
[4a	.
4a	.
4a	.
=209	=209
2ff#	f
4dd	.
4a	.
=210	=210
2f#	.
2e	.
=211	=211
1d#	sf
=212	=212
[1d	sf
=213	=213
(4d	.
4c#)	.
!LO:TX:t=cresc.	!
(4ee	<
4dd	.
=214	=214
4cc#	.
4b	.
4a	.
4g)	.
=215	=215
4f#	[
4aa	.
4aa	.
4ff#	.
=216	=216
2dd	.
2cc#	.
=217	=217
1cc	sf
=218	=218
1dd#	sf
=219	=219
1ee	sf
=220	=220
1ff	sf
=221	=221
4ff#	sf
4A 4f#	.
4A 4f#	.
4A 4f#	.
=222	=222
2.A 2.g	.
4cc#	.
=223	=223
[1dd	p
=224	=224
[1dd	.
=225	=225
4dd	.
(4cc#	.
4gg	.
4ee	.
=226	=226
4dd	.
4cc#	.
4b	.
4a)	.
=227	=227
4dd	.
4r	.
4r	.
8r	.
!LO:TX:t=cresc.	!
(24dd	<
24ee	.
24ff#)	.
=228	=228
(4gg	.
4aa	.
4bb	.
4aa)	.
=229	=229
[1gg	.
=230	=230
(2gg	.
2cc#)	.
=231	=231
4dd	[
(12a	p
12b	.
12cc#	.
12ddL	.
12ee	.
12ff#	.
12ggL	.
12ff#	.
12ee)	.
=232	=232
4dd	.
4r	.
2r	.
=233	=233
4r	.
12a	.
12b	.
12cc#	.
12ddL	.
12ee	.
12ff#	.
12ggL	.
12ff#	.
12ee	.
=234	=234
4dd	.
4r	.
2r	.
=235	=235
4r	.
12a	.
12b	.
12cc#	.
12ddL	.
12ee	.
12ff#	.
12ggL	.
12ff#	.
12ee	.
=236	=236
12ddL	.
12cc#	.
12b	.
12aL	.
12b	.
12cc#	.
12ddL	.
12ee	.
12ff#	.
12ggL	.
12ff#	.
12ee	.
=237	=237
4dd	f
4r	.
2r	.
=238	=238
4c	.
4r	.
2r	.
=239	=239
4cc	f
4r	.
2r	.
=240	=240
4c	.
4r	.
2r	.
=241	=241
4cc	p
4r	.
2r	.
=242	=242
1r	.
=243	=243
(1b-	.
=244	=244
1cc)	.
=245	=245
(2dd	.
[2g)	.
=246	=246
[1g	<
=247	=247
1g	.
=248	=248
1c	.
=249	=249
4B-	[
2e-	.
(4e-	.
=250	=250
4d)	.
2d	.
(4d	.
=251	=251
4e-)	.
(4e-	.
4f)	.
(4f	.
=252	=252
4e-)	.
(4e-	.
4d)	.
4d	.
=253	=253
4e-	.
2g	.
(8g	.
8f#)	.
=254	=254
4g	.
2g	.
(8g	.
8f#)	.
=255	=255
!LO:TX:t=cresc.	!
4g	<
(4e	.
4d)	.
[4d	.
=256	=256
4d	.
(4d	.
4c#)	.
4c#	.
=257	=257
(1a	p
=258	=258
[1gg)	.
=259	=259
8ggL	.
(8ff#	.
8ee	.
8dd	.
8cc#L	.
8dd	.
8ff#	.
8dd)	.
=260	=260
(8ddL	.
8cc#	.
8b	.
8a	.
8g#L	.
8a	.
8b	.
8a)	.
=261	=261
!LO:TX:t=cresc.	!
[1a	p
=262	=262
[1a	.
=263	=263
4a	.
4f#	.
4f#	.
4f#	.
=264	=264
1f	f
=265	=265
4f#	p
4r	.
[2ff#	.
=266	=266
!LO:TX:t=cresc.	!
2.ff#	<
(8aa	.
8bb	.
=267	=267
8ggL	.
8aa	.
8ff#	.
8gg	.
8eeL	.
8ff#	.
8dd	.
8ee	.
=268	=268
8cc#L	.
8dd	.
8b	.
8cc#	.
8aL	.
8b	.
8g	.
8a)	.
=269	=269
4f#	f
4r	.
2r	.
=270	=270
4a 4gg	.
4r	.
2r	.
=271	=271
4d 4a 4ff#	.
4r	.
2r	.
=272	=272
*k[b-e-]	*
*B-:	*
*M2/4	*
!LO:TX:a:B:t=Andante con moto	!
(8B-L	p
8d	.
8e-	.
8d)	.
=273	=273
(8cL	.
8e-	.
8f	.
8e-)	.
=274	=274
(8dL	.
8f	.
8g	.
8f)	.
=275	=275
(16fLL	.
16e	.
16d	.
16c)	.
(8.fL	.
16e-)	.
=276	=276
(16e-LL	.
16d	.
16c	.
16B-)	.
(8AL	.
8B-)	.
=277	=277
(16fLL	.
16e-	.
16d	.
16c)	.
(8BL	.
8c)	.
=278	=278
(16gLL	.
16f	.
16e-	.
16d)	.
(8c#L	.
8d)	.
=279	=279
[4b-	.
16b-LL	.
(16a	.
16g	.
16f)	.
=280	=280
[4a-	.
16a-LL	.
(16g	.
16f	.
16e-)	.
=281	=281
8cL	.
4f	<
8f	.
=282	=282
(16.fLL	.
32e-)	.
(4d	.
16.e-	.
32c)	.
=283	=283
8B-L	p
8r	.
4r	.
=284	=284
(8ccL	.
16b-)	.
16r	.
(8ggL	.
16gg)	.
16r	.
=285	=285
8ccL	.
8r	.
4r	.
=286	=286
4r	.
(16.ddLL	.
32cc)	.
8b-	.
=287	=287
!LO:TX:t=cresc.	!
(16.ccLL	<
32b-	.
16.a	.
32b-	.
16.gLL	.
32a	.
16.f	.
32g)	[
=288	=288
16eLL	p
8c	.
16c	.
(32BLLL	.
32c	.
32d	.
32e	.
32f	.
32d	.
32c	.
32B)	.
=289	=289
(16.gLL	.
32e)	.
8c	.
4r	.
=290	=290
[8ccL	.
32cc	.
(32ee	.
32dd	.
32cc)	.
(32bLLL	.
32cc	.
32dd	.
32ee	.
32ff	.
32dd	.
32cc	.
32b)	.
=291	=291
(16.ggLL	.
32ee)	.
8cc	.
16r	.
16f	.
16f	.
16f	.
=292	=292
!LO:TX:t=decresc	!
16eLL	.
16c	.
16e	.
16r	.
16r	.
16e	.
16g	.
16r	.
=293	=293
16r	.
16g	.
16b-	.
16r	.
4r	.
=294	=294
4r	.
16b-LL	pp
16r	.
16g	.
16r	.
=295	=295
16eLL	.
16r	.
8r	.
16aLL	.
16r	.
16f	.
16r	.
=296	=296
16c	.
16cc	.
16cc	.
16cc	.
(8.ccTL	.
32b	.
32cc)	.
=297	=297
16cLL	.
16cc	.
16cc	.
16cc	.
(8.ccTL	.
32b	.
32cc)	.
=298	=298
16r	.
16eLL	.
16r	.
16g	.
16r	.
16b-	.
16r	.
16e	.
=299	=299
16r	.
16fLL	.
16r	.
16a	.
16r	.
16cc	.
16r	.
16f	.
=300	=300
16r	.
!LO:TX:t=cresc.	!
16eLL	<
16r	.
16g	.
16r	.
16b-	.
16r	.
16ee	.
=301	=301
4ff	f
(4d-	.
=302	=302
4B-	.
4G)	.
=303	=303
(4B-	.
8cJ)	.
(8cL	.
=304	=304
8d-L)	.
(4B-	.
8A-)	.
=305	=305
8GL	p
(8g	.
8a-L	.
8g)	.
=306	=306
(8eL	.
8g	.
8a-L)	.
!LO:TX:t=cresc.	!
16.g	<
32g	.
=307	=307
(4a-	[
8aL	.
8e)	.
=308	=308
(8fL	p
8a	.
8b-	.
8a)	.
=309	=309
(8gL	.
8b-	.
8cc	.
8b-)	.
=310	=310
!LO:TX:t=cresc.	!
16aLL	<
(8a	.
32b-	.
32cc)	.
16ddLL	.
16ee	.
16ff	<
16gg	[
=311	=311
8aaL	p
8r	.
16aLL	.
16a	.
16b-	.
16b-	.
=312	=312
(8.aL	.
32g	.
32f	.
8eL	.
8f)	.
=313	=313
(8.b-L	.
32a	.
32g	.
8f#L	.
8g)	.
=314	=314
(8.ccL	.
32b-	.
32a)	.
(8.ddL	.
32cc	.
32b-)	.
=315	=315
[8ee-L	.
(16ee-	.
32dd	.
32cc)	.
(8b-L	f
8a)	.
=316	=316
2r	.
=317	=317
2r	.
=318	=318
(4B-	p
8cL	.
8B-)	.
=319	=319
(4A	.
8G#L	.
8A)	.
=320	=320
4B-	.
(8B-L	.
8B-)	.
=321	=321
8B-L	.
8r	.
(8.fL	.
16e-)	.
=322	=322
(16e-LL	.
16d	.
16c	.
16B-)	.
(8AL	.
8B-)	.
=323	=323
(16fLL	.
16e-	.
16d	.
16c)	.
(8BL	.
8c)	.
=324	=324
(16gLL	.
16f	.
16e-	.
16d)	.
(8c#L	.
8d)	.
=325	=325
[4b-	.
(16b-LL	.
16a	.
16g	.
16f)	.
=326	=326
[4a-	.
(16a-LL	.
16g	.
16f	.
16e-)	.
=327	=327
(8cL	<
4f)	.
8f	.
=328	=328
(16.fLL	.
32e-)	.
4d	.
(16.e-	.
32c)	.
=329	=329
8B-L	p
8r	.
4r	.
=330	=330
(8ccL	.
16b-)	.
16r	.
(8ggL	.
16gg)	.
16r	.
=331	=331
8ccL	.
8r	.
4r	.
=332	=332
2r	.
=333	=333
4r	.
(32dLLL	pp
32e-	.
32f	.
32g	.
32a	.
32b-	.
32cc	.
32cc#)	.
=334	=334
(4dd	.
4a-)	.
=335	=335
!LO:TX:t=cresc.	!
(4g-	.
4f)	.
=336	=336
16g-LL	.
8B-	.
[16B-	.
16B-LL	.
8B-	.
16B-	.
=337	=337
8B-L	.
8r	.
4r	.
=338	=338
!LO:TX:t=cresc.	!
(4ee-	<
4g-)	.
=339	=339
(4f	.
4e-)	.
=340	=340
16fLL	.
8f	.
(16f	.
16g-LL)	.
8g-	.
16g-	.
=341	=341
(4f	.
4e-)	.
=342	=342
(16.a-LL	f
32f)	.
16d-	.
16d-	.
(16.g-LL	.
32e-)	.
16c	.
16c	.
=343	=343
16dJJ	p
8A-L	.
8A-	.
8A-	.
16A-	.
=344	=344
16B-LL	.
8B-	.
8B-	.
8B-	.
16B-	.
=345	=345
16A-LL	.
8d-	.
8d-	.
8d-	.
[16d-	.
=346	=346
16d-LL	.
8B-	.
[16B-	.
(16B-LL	.
16A-)	.
16A-	.
16A-	.
=347	=347
(8.fL	.
32e-	.
32d-)	.
(8cL	.
8d-)	.
=348	=348
(8.g-L	.
32f	.
32e-)	.
(8dL	.
8e-)	.
=349	=349
!LO:TX:t=cresc.	!
(8.a-L	<
32g	.
32f)	.
(8eL	.
8f)	.
=350	=350
8gL	.
8dd-	.
8cc	.
8b-	[
=351	=351
(8a-L	p
8cc	.
8dd-	.
8cc)	.
=352	=352
(8a-L	.
8cc	.
8dd-	.
8cc)	.
=353	=353
(8b-L	.
8f	.
8g-	.
8f)	.
=354	=354
(8dd-L	.
8ff	.
8gg-	.
8ff)	.
=355	=355
8ee-J	.
(8b-L	.
8cc-	.
8b-)	.
=356	=356
(8ee-L	.
8gg-	.
8aa-	.
8gg-)	.
=357	=357
(8b-L	pp
8e-	.
8d	.
8e-)	.
=358	=358
!LO:TX:t=cresc.	!
(8cL	<
8d-	.
8B-L)	.
(8c-	.
=359	=359
8AL	.
8f	.
8e-L	.
8d-	.
=360	=360
8cL)	.
(8cc	.
8dd-L	.
8e)	.
=361	=361
4f	p
(32eLLL	.
32f	.
32g	.
32a	.
32b-LLL	.
32g	.
32f	.
32e)	.
=362	=362
(16.ccLL	.
32a)	.
8f	.
4r	.
=363	=363
[8ffL	.
32ff	.
(32aa	.
32gg	.
32ff)	.
(32eeLLL	.
32ff	.
32gg	.
32aa	.
32bb-LLL	.
32gg	.
32ff	.
32ee)	.
=364	=364
(16.cccLL	.
32aa)	.
8ff	.
16r	.
16c	.
16c	.
16c	.
=365	=365
16cLL	.
16f	.
16a	.
16r	.
16r	.
16a	.
16cc	.
16r	.
=366	=366
16r	.
16cc	.
16ee-	.
16r	.
4r	.
=367	=367
4r	.
16ee-LL	pp
16r	.
16cc	.
16r	.
=368	=368
8aL	.
8r	.
16ddLL	.
16r	.
16b-	.
16r	.
=369	=369
16fLL	.
16ff	.
16ff	.
16ff	.
(8.ffTL	.
32ee	.
32ff)	.
=370	=370
16fLL	.
16ff	.
16ff	.
16ff	.
(8.ffTL	.
32ee	.
32ff)	.
=371	=371
16r	.
16aLL	.
16r	.
16cc	.
16r	.
16ee-	.
16r	.
16a	.
=372	=372
16r	.
16b-LL	.
16r	.
16dd	.
16r	.
16ff	.
16r	.
16b-	.
=373	=373
16r	.
!LO:TX:t=cresc.	!
16aLL	<
16r	.
16cc	.
16r	.
16ee-	.
16r	.
16a	[
=374	=374
4b-	f
(4g-	.
=375	=375
4e-	.
4c)	.
=376	=376
[4A-	sf
8A-J	.
[8B-J	sf
=377	=377
8B-L	.
4c-	ff
(8B-	[
=378	=378
8AJ)	.
(8ccL	.
8dd-	.
8cc)	.
=379	=379
(8aL	.
8cc	.
8dd-L	.
!LO:TX:t=cresc.	!
16.cc)	.
32cc	.
=380	=380
(4dd-	ff
8ddL	.
8a)	.
=381	=381
(8b-L	p
8d	.
8e-	.
8d)	.
=382	=382
(8cL	.
8e-	.
8f	.
8e-)	.
=383	=383
(8dL	.
8f	.
8g	.
8f)	.
=384	=384
(16fLL	.
16e	.
16d	.
16c)	.
(8.fL	.
16e-)	.
=385	=385
(16e-LL	.
16d	.
16c	.
16B-)	.
(8AL	.
8B-)	.
=386	=386
(16fLL	.
16e-	.
16d	.
16c)	.
(8BL	.
8c)	.
=387	=387
(16gLL	.
16f	.
16e-	.
16d)	.
(8c#L	.
8B-)	.
=388	=388
!LO:TX:t=cresc.	!
8.gL	<
16g	.
8.cL	.
16c	.
=389	=389
8.fL	.
16f	.
8.B-L	.
16B-	.
=390	=390
16fLL	.
(8e-	.
16d)	.
16gLL	.
(16g	.
16f	.
16c)	.
=391	=391
24dLL	sf
24d	.
24d	.
24d	.
24d	.
24d	.
24dLL	sf
24e-	.
24e-	.
24e-	.
24e-	.
24e-	.
=392	=392
24e-LL	sf
24g	.
24g	.
24g	.
24g	.
24g	.
24gLL	sf
24ee-	.
24ee-	.
24ee-	.
24ee-	.
24ee-	.
=393	=393
8ee-L	f
8r	.
4r	.
=394	=394
2r	.
=395	=395
(8B-L	p
8d	.
8e-	.
8d)	.
=396	=396
(8.ddL	.
32cc	.
32b-)	.
(8aL	.
8b-)	.
=397	=397
(8ee-L	.
8gg	.
8aa-	.
8gg)	.
=398	=398
(8.bb-L	.
32aa-	.
32gg)	.
(8ffL	.
8gg)	.
=399	=399
!LO:TX:t=cresc.	!
(8gg-L	<
[8ff)	.
16ffLL	.
(16ee-	.
16dd	.
16cc)	.
=400	=400
24b-LL	sf
24d	.
24d	.
24d	.
24d	.
24d	.
24dLL	sf
24e-	.
24e-	.
24e-	.
24e-	.
24e-	.
=401	=401
24e-LL	sf
24g	.
24g	.
24g	.
24g	.
24g	.
24gLL	sf
24g-	.
24g-	.
24g-	.
24g-	.
24g-	.
=402	=402
24g-LL	sf
24f	.
24f	.
24f	.
24f	.
24f	.
24fLL	sf
24b-	.
24b-	.
24b-	.
24b-	.
24b-	.
=403	=403
24aLL	ff
24c 24e-	.
24c 24e-	.
24c 24e-	.
24c 24e-	.
24c 24e-	.
24cLL 24e-	.
24c 24e-	.
24c 24e-	.
24c 24e-	.
24c 24e-	.
24c 24e-	.
=404	=404
8cL 8a	f
8r	.
4r	.
=405	=405
2r	.
=406	=406
16B-LL	pp
8b-	.
8b-	.
8b-	.
[16b-	.
=407	=407
16b-LL	.
8g-	.
8g-	.
8g-	.
(16g-	.
=408	=408
16fLL)	.
8f	.
[16f	.
16fLL	.
8b-	.
[16b-	.
=409	=409
16b-LL	.
8b-	.
(16b-	.
16aLL)	.
8a	.
16a	.
=410	=410
(8b-L	pp
8dd	.
8ee-	.
8dd)	.
=411	=411
4.a	.
8a	.
=412	=412
(8b-L	.
32a	.
32b-	.
32cc	.
32dd)	.
(8ee-L	.
8dd)	.
=413	=413
4.a	.
8a	.
=414	=414
(8b-L	.
8dd	.
8ee-	.
8dd)	.
=415	=415
8r	.
(8bb-	.
8aa	.
8bb-)	.
=416	=416
8r	.
(8ddd	.
8ccc#	.
8ddd)	.
=417	=417
8r	.
8aa	.
8r	.
8ee-	.
=418	=418
8r	.
8dd	.
4r	.
=419	=419
8r	.
!LO:TX:t=smor -	!
8g	.
4r	.
=420	=420
8r	.
!LO:TX:t=zan  -	!
8e-	.
4r	.
=421	=421
!LO:TX:t=do	!
8dL	.
8r	.
8B-L	pp
8r	.
=422	=422
8B-L	.
8r	.
4r	.
=423!|:	=423!|:
*k[f#c#]	*
*D:	*
*M3/4	*
!LO:TX:a:B:t=Allegro	!
4r	.
=424	=424
(2A	p
4A#)	.
=425	=425
2.B	.
=426	=426
4A	.
4A	.
4A	.
=427	=427
(4d	.
4c#)	.
4r	.
=428	=428
[2.d	<
=429	=429
2d	>
4d	]
=430	=430
4c#	.
(4c#	.
4e#)	.
=431!|:	=431!|:
4f#	.
4r	.
=	=
[4f#	.
=432	=432
(4f#	.
4e	.
4d#	.
=433	=433
4e	.
4f#	.
4g	.
=434	=434
4a	.
4b	.
4cc)	.
=435	=435
2f#	.
4r	.
=436	=436
(2d	pp
4d#	.
=437	=437
2.e)	.
=438	=438
4d	.
4d	.
4d	.
=439	=439
(4g	.
4f#)	.
4d	sf
=440	=440
4d	.
4r	.
4g	sf
=441	=441
4a	.
4r	.
4e	sf
=442	=442
(4g	.
4f#)	.
4g	sf
=443	=443
!LO:TX:t=cresc.	!
[2.g#	<
=444	=444
(2.g#	.
=445	=445
2a)	p
4a#	.
=446	=446
(2.a#	.
=447	=447
4b	.
4g	.
4f#)	.
=448	=448
(2.e#	<
=449	=449
4f#)	[
4r	.
4a#	.
=450	=450
(2.a#	.
=451	=451
4b	.
4g)	.
4e	.
=452	=452
(2.d	<
=453	=453
4c#)	[
4r	.
4d	.
=454	=454
(2f#	>
4e)	]
=455	=455
(2g	>
4c#)	]
=456	=456
4d	.
4r	.
4r	.
=457	=457
2.r	.
=458	=458
2.r	.
=459	=459
2.r	.
=460	=460
4r	.
4r	.
4dd	p
=461	=461
!LO:TX:t=cresc.	!
(4dd	.
4ee)	.
4cc	.
=462	=462
(4cc	.
[2b)	.
=463	=463
[2.b	.
=464	=464
4b	.
4r	.
4dd#	sf
=465	=465
4b	.
4r	.
4b	sf
=466	=466
4a	.
4r	.
4r	.
=467	=467
(4e	.
4f#)	.
4d	sf
=468	=468
(4c#	.
4d)	.
4B	sf
=469	=469
(4A	.
4B)	.
4G	sf
=470	=470
[2.d	.
=471	=471
[2.d	.
=472	=472
4d	.
(4g	<
4f#	.
=473	=473
4e	>
4d	.
4c#)	]
=474	=474
!LO:TX:t=cresc.	!
2.d	.
=475	=475
[2.d [2.dd	.
=476	=476
4d 4dd	p
(4gg	.
4ff#	.
=477	=477
4ee	.
4dd	.
4cc#	.
=478	=478
4dd)	.
4r	.
4r	.
=479	=479
2.r	.
=480	=480
2.r	.
=481	=481
4r	.
4r	.
4a	.
=482	=482
!LO:TX:t=cresc.	!
4a	<
(4dd	.
4cc#	.
=483	=483
4b	.
4a	.
4g)	.
=484	=484
[2.A 2.g	sfp
=485	=485
4A 4f#	.
4r	.
=:|!|:	=:|!|:
*k[b-]	*
*d:	*
4A	p
=486	=486
(8AL	.
8c#	.
8d	.
8e	.
8f	.
8g	.
=487	=487
8aL	.
8g#	.
8a	.
8g#	.
8a	.
8g#)	.
=488	=488
(8aL	sf
8dd	.
8cc#	.
8b-	.
8a	.
8g#)	.
=489	=489
4a	.
4r	.
4r	.
=490	=490
(2.f	.
=491	=491
2.e	.
=492	=492
2.d	sf
=493	=493
2.c#)	.
=494	=494
!LO:TX:t=cresc.	!
(2.f	<
=495	=495
2.f#)	.
=496	=496
4e	p
4r	.
4e	.
=497	=497
4e	.
4r	.
=:|!	=:|!
4G	p
=498	=498
(8GL	.
8B	.
8c	.
8d	.
8e	.
8f	.
=499	=499
8gL	.
8f#	.
8g	.
8f#	.
8g	.
8f#)	.
=500	=500
(8gL	sf
8cc	.
8b-	.
8a	.
8g	.
8f#)	.
=501	=501
4g	.
4r	.
4r	.
=502	=502
(2.b-	.
=503	=503
2.a	.
=504	=504
2.g	sf
=505	=505
2.f)	.
=506	=506
(2.ff	.
=507	=507
2.ee	.
=508	=508
2.dd	sf
=509	=509
2.cc#)	.
=510	=510
(2.dd	sf
=511	=511
2.cc#)	.
=512	=512
!LO:TX:t=cresc.	!
(2.dd	<
=513	=513
2.d)	.
=514	=514
4c#	p
4r	.
4r	.
=515	=515
2.r	.
=516	=516
2.r	.
=517	=517
2.r	.
=518	=518
2.r	.
=519	=519
2.r	.
=520	=520
2.r	.
=521	=521
2.r	.
=522||	=522||
*k[f#c#]	*
*D:	*
(2A	p
4A#)	.
=523	=523
2.B	.
=524	=524
4A	.
4A	.
4A	.
=525	=525
(4d	.
4c#)	.
4r	.
=526	=526
(2.A	.
=527	=527
2d)	>
4d	]
=528	=528
4c#	.
(4c#	.
4e#)	.
=529	=529
4f#	.
4r	.
4f#	.
=530	=530
[2.f#	.
=531	=531
(4f#	.
4g	.
4f)	.
=532	=532
(4d	.
4c#)	.
4d	.
=533	=533
(4f#	.
4e)	.
4f#	.
=534	=534
2f#	<
[4g	>
=535	=535
(4g	]
4f#)	.
4e#	.
=536	=536
(2f#	.
8aL	.
8g#)	.
=537	=537
4f#	.
4r	.
[4a	.
=538	=538
4a	.
(4g	.
4f#	.
=539	=539
4g	.
4a	.
4b	.
=540	=540
4cc	.
4dd	.
4ee)	.
=541	=541
2a	.
4b	pp
=542	=542
[2.b	.
=543	=543
(4b	.
4cc	.
4a)	.
=544	=544
(4g	.
4f#)	.
4g	.
=545	=545
(4b	.
4a)	.
4a#	sf
=546	=546
(4cc	.
4b)	.
4cc#	sf
=547	=547
(4ee	.
4dd)	.
4ee	sf
=548	=548
(4gg	.
4ff#)	.
4gg	sf
=549	=549
!LO:TX:t=cresc.	!
[2.gg#	<
=550	=550
2.gg#	.
=551	=551
2aa	p
4a#	.
=552	=552
(2.a#	.
=553	=553
4b	.
4g	.
4f#)	.
=554	=554
(2.e#	<
=555	=555
4f#)	[
4r	.
4a#	.
=556	=556
(2.a#	.
=557	=557
4b	.
4g	.
4e)	.
=558	=558
(2.d	<
=559	=559
4c#)	[
4r	.
4d	.
=560	=560
(2f#	>
4e)	]
=561	=561
(2g	>
4c#)	]
=562	=562
4d	.
4r	.
4r	.
=563	=563
2.r	.
=564	=564
2.r	.
=565	=565
2.r	.
=566	=566
4r	.
4r	.
4dd	p
=567	=567
(4dd	.
4ee)	.
4cc	.
=568	=568
!LO:TX:t=cresc.	!
(4cc	<
[2b)	.
=569	=569
[2.b	.
=570	=570
4b	[
4r	.
4dd#	sf
=571	=571
4b	.
4r	.
4b	sf
=572	=572
4a	.
4r	.
4r	.
=573	=573
(4e	.
4f#)	.
4d	sf
=574	=574
(4c#	.
4d)	.
4B	sf
=575	=575
(4A	.
4B)	.
4G	sf
=576	=576
[2.d	.
=577	=577
[2.d	.
=578	=578
4d	<
(4g	.
4f#	.
=579	=579
4e	>
4d	.
4c#)	]
=580	=580
!LO:TX:t=cresc.	!
2.d	<
=581	=581
[2.d [2.dd	.
=582	=582
4d 4dd	p
(4gg	.
4ff#	.
=583	=583
4ee	.
4dd	.
4cc#)	.
=584	=584
4dd	.
4r	.
4r	.
=585	=585
2.r	.
=586	=586
2.r	.
=587	=587
4r	.
4r	.
4a	.
=588	=588
!LO:TX:t=cresc.	!
(4a	<
4dd	.
4cc#	.
=589	=589
4b	.
4a	.
4g)	.
=590	=590
([2.A 2.g	sfp
=591	=591
4A) 4f#	.
4r	.
=	=
*M6/8	*
!LO:TX:a:B:t=Presto	!
4r	.
=592!|:	=592!|:
2.r	.
=593	=593
2.r	.
=594	=594
2.r	.
=595	=595
4r	.
8r	.
8r	.
(8dd	p
8cc#	.
=596	=596
8ddL)	.
(8b	.
8a#	.
8bL)	.
(8g	.
8f#	.
=597	=597
8gL)	.
(8e	.
8d#	.
8eL)	.
8f#	.
8g	.
=598	=598
8aL	.
8b	.
8cc#	.
8ddL	.
8ee	.
8ff#	.
=599	=599
4gg	.
8r	.
8r	.
(8ff#	.
8ee#)	.
=600	=600
(8ff#L	.
8gg)	.
8aa	.
4aa	.
8aa	.
=601	=601
(4.aa	.
8ggL)	.
(qqbb	.
8aa	.
8gg#)	.
=602	=602
(8aaL	.
8bb)	.
8ccc	.
4ccc	.
8ccc	.
=603	=603
(4.ccc	.
8bbL)	.
(qqff#	.
8ee	.
8dd#)	.
=604	=604
(8eeL	.
8ff#)	.
8gg	.
4gg	.
8gg	.
=605	=605
(4.gg	.
4ff#)	.
[8ff#	.
=606	=606
4ff#	.
[8ee	.
4ee	.
8cc#	.
=607	=607
(4.cc#	.
4dd)	.
8r	.
=608	=608
2.r	.
=609	=609
(4.d#t	sf
qqc#)	.
qqd#	.
4e	.
8r	.
=610	=610
2.r	.
=611	=611
(4.f#t	sf
qqe)	.
qqf#	.
8gL	.
(8ee	.
8dd#)	.
=612	=612
(8eeL	.
8ff#)	.
8gg	.
8ggL	.
8gg	.
8gg	.
=613	=613
(4.gg	sf
4cc#)	.
8r	.
=614	=614
(8ggL	sf
8cc#)	.
8r	.
(8ggL	sf
8cc#)	.
8r	.
=615	=615
(8ggL	sf
[4cc#)	.
4cc#	.
[8dd	.
=616	=616
4dd	.
[8ee	.
4ee	.
8cc#	.
=617	=617
8ddL	p
8a	.
8a	.
8ddL	.
8a	.
8a	.
=618	=618
8eeL	.
8a	.
8a	.
8eeL	.
8a	.
8a	.
=619	=619
8ff#L	.
8f#	.
8f#	.
8dL	.
8f#	.
8f#	.
=620	=620
8dL	.
8e	.
8e	.
8c#L	.
8e	.
8e	.
=621	=621
8dL	.
8a	.
8a	.
8ddL	.
8a	.
8a	.
=622	=622
8eeL	.
8a	.
8a	.
8eeL	.
8a	.
8a	.
=623	=623
8ff#L	.
8f#	.
8f#	.
8dL	.
8f#	.
8f#	.
=624	=624
8dL	.
8e	.
8e	.
8c#L	.
8e	.
8e	.
=625	=625
8dL	.
(8d	.
8c#	.
4d)	.
8dd	.
=626	=626
4a	.
8a	.
4a	.
8cc#	.
=627	=627
8ddL	.
(8d	.
8c#	.
4d)	.
8dd	.
=628	=628
4a	.
8a	.
4a	.
8cc#	.
=629	=629
8ddL	.
!LO:TX:t=cresc.	!
(8d	<
8c#	.
4d)	.
8r	.
=630	=630
8r	.
(8f#	.
8e#	.
4f#)	.
8r	.
=631	=631
8r	.
(8a	.
8g#	.
4a)	.
8r	.
=632	=632
(2.a	sf
=633	=633
4g#)	.
8r	.
(4.dd	p
=634	=634
4.cc	.
4.g#	.
=635	=635
4.a	.
4.d	.
=636	=636
4.c)	.
(4.d#	sf
=637	=637
4e)	.
8r	.
(4.g#	.
=638	=638
4.a	.
4.f	.
=639	=639
4.e	.
4.G#	.
=640	=640
4.A)	.
(4.d#	sf
=641	=641
8eL)	.
(8B	.
8c	.
8BL)	.
8c	.
8B	.
=642	=642
8dL	sf
(8c#	.
8d	.
8c#L)	.
8d	.
8c#	.
=643	=643
8fL	sf
(8e	.
8f	.
8eL)	.
8f	.
8e	.
=644	=644
!LO:TX:t=cresc.	!
(8gL	<
8f#)	.
8f#	.
(8aL	.
8g#)	.
8g#	.
=645	=645
(8b-L	.
8a)	.
8a	.
(8ccL	.
8b)	.
8b	.
=646	=646
(8ddL	.
8cc#)	.
8cc#	.
(8eeL	.
8dd)	.
8dd	.
=647	=647
8cc#L	p
8cc#	.
8cc#	.
(8cc#L	.
8b#	.
8cc#)	.
=648	=648
8ddL	.
8dd	.
8dd	.
(8ddL	.
8cc#	.
8dd)	.
=649	=649
8cc#L	.
8ee	.
8ee	.
8eeL	.
8ee	.
8ee	.
=650	=650
8eeL	.
8ee	.
8a	.
8aL	.
8a	.
8a	.
=651	=651
8g#L	.
8e	.
8e	.
8g#L	.
8e	.
8e	.
=652	=652
8aL	.
8e	.
8e	.
8bL	.
8e	.
8e	.
=653	=653
8cc#L	.
8e	.
8e	.
8dL	.
8f#	.
8d	.
=654	=654
8c#L	.
8e	.
8c#	.
8BL	.
8d	.
8B	.
=655	=655
8c#L	.
8A 8e	p
8A 8e	.
8AL 8e	.
8A 8e	.
8A 8e	.
=656	=656
8BL 8e	.
8B 8e	.
8B 8e	.
8BL 8e	.
8B 8e	.
8B 8e	.
=657	=657
8AL	.
8e	.
8e	.
8eL	.
8e	.
8e	.
=658	=658
8eL	.
8e	.
8e	.
8eL	.
8e	.
8e	.
=659	=659
8eL	.
8c#	.
8c#	.
8c#L	.
8c#	.
8c#	.
=660	=660
8dL	.
8d	.
8d	.
8eL	.
8e	.
8e	.
=661	=661
8f#L	.
8A	.
8A	.
8c#L	.
8A	.
8A	.
=662	=662
8dL	.
8A	.
8A	.
8eL	.
8A	.
8A	.
=663	=663
8f#L	.
8a	.
8a	.
!LO:TX:t=cresc.	!
8cc#L	<
8a	.
8a	.
=664	=664
8ddL	.
8a	.
8a	.
8eeL	.
8a	.
8a	.
=665	=665
8ddL	.
8a	.
8a	.
8ddL	.
8a	.
8a	.
=666	=666
8cc#L	.
8a	.
8a	.
8ccL	.
8a	.
8a	.
=667	=667
4g#	sf
8r	.
4.r	.
=668	=668
4a	sf
8r	.
4r	.
8r	.
=669	=669
4g#	sf
8r	.
4r	.
8r	.
=670	=670
4r	.
8r	.
8eL	ff
8e	.
8e	.
=671	=671
4f	.
8r	.
4r	.
8r	.
=672	=672
2.r	.
=673	=673
4r	.
8r	.
4r	.
(8a	p
=674	=674
!LO:TX:t=dol.	!
qqcc	.
4b-	.
8a	.
4b-	.
8cc)	.
=675	=675
4a	.
8r	.
4r	.
(8a	.
=676	=676
qqcc	.
4b-	.
8a	.
4b-	.
8cc)	.
=677	=677
4a	.
8r	.
4r	.
8r	.
=678	=678
(2.d#	ff
=679	=679
8eL)	.
8e 8cc#	.
8e 8cc#	.
8eL 8cc#	.
8e 8cc#	.
8e 8cc#	.
=680	=680
8eL 8cc#	.
8e 8cc#	.
8e 8cc#	.
8eL 8dd	.
8e 8dd	.
8e 8dd	.
=681	=681
4e 4cc#	.
8cc	pp
4ff	.
8r	.
=682	=682
(2.e-	ff
=683	=683
4d)	.
8r	.
4b- 4ff	.
8r	.
=684	=684
4r	.
8r	.
4cc 4aa	.
8r	.
=685	=685
4r	.
8r	.
4cc# 4aa	.
8r	.
=686	=686
4r	.
8r	.
4b 4gg#	.
8r	.
=687	=687
4cc# 4aa	.
8r	.
8r	.
8dd	.
8dd	.
=688	=688
4cc#	.
8r	.
8r	.
8gg#	.
8gg#	.
=689	=689
4aa	.
8r	.
8r	.
8dd	.
8dd	.
=690	=690
4cc#	.
8r	.
8r	.
8d	.
8d	.
=691	=691
4c#	.
8r	.
8r	.
8g#	.
8g#	.
=692	=692
4a	.
8r	.
8r	.
8g#	.
8g#	.
=693	=693
4a	.
8r	.
4.b	p
=694	=694
4.a	.
4.g	.
=695	=695
!LO:TX:t=cresc.	!
4.f#	<
4.e	.
=696	=696
4.d	.
4.c#	.
=697	=697
4.B	.
4.A	.
=698	=698
4.G#	.
4.G	.
=699	=699
[2.G	f
=700	=700
2.G	.
=701	=701
[2.G [2.g	f
=702	=702
2.G 2.g	.
=703	=703
2.G 2.g	f
=704	=704
2.B- 2.g	f
=705	=705
4A 4g	f
8r	.
4r	.
8r	.
=706	=706
2.r	.
=707	=707
2.r	.
=708	=708
8r	.
(8e	p
8d#	.
4e)	.
8r	.
=709	=709
8r	.
(8d	.
8c#	.
4d)	.
8r	.
=710	=710
8r	.
(8c#	.
8B#	.
4c#)	.
8r	.
=711	=711
2.r	.
=712:|!	=712:|!
4A 4g	f
8r	.
4r	.
8r	.
=713	=713
2.r	.
=714	=714
2.r	.
=715	=715
8r	.
(8e	p
8d#	.
4e)	.
8r	.
=716	=716
8r	.
(8d	.
8c#	.
4d)	.
8r	.
=717	=717
8r	.
(8c#	.
8B#	.
4c#)	.
8r	.
=718	=718
8r	.
(8cc	.
8dd	.
4cc)	.
8r	.
=719	=719
8r	.
(8b	.
8cc#	.
4b)	.
8r	.
=720	=720
8r	.
(8a	.
8b	.
4a)	.
8r	.
=721	=721
8r	.
(8a	pp
8g#	.
4a)	.
8r	.
=722	=722
8r	.
(8g	.
8f#	.
4g)	.
8r	.
=723	=723
8r	.
(8f#	.
8e#	.
4f#)	.
8r	.
=724	=724
8r	.
(8ee	.
8ff#	.
4ee)	.
8r	.
=725	=725
8r	.
(8dd	.
8ee	.
4dd)	.
8r	.
=726	=726
8r	.
(8cc	.
8dd	.
4cc)	.
8r	.
=727	=727
2.r	.
=728	=728
2.r	.
=729	=729
2.r	.
=730	=730
2.r	.
=731	=731
8r	.
(8dd	f
8cc#	.
8ddL)	.
(8b	.
8a#	.
=732	=732
8bL)	.
8ee	.
8dd	.
8cc#L	.
8b	.
8a	.
=733	=733
4dd	.
8r	.
[4.gg	sf
=734	=734
2.gg	.
=735	=735
4ff#	p
8r	.
4r	.
8r	.
=736	=736
2.r	.
=737	=737
8r	.
(8ee	p
8dd#	.
8eeL)	.
8aa	.
8gg#	.
=738	=738
8ff#L	.
8ee	.
8dd	.
8cc#L	.
8dd	.
8b	.
=739	=739
4a	.
8r	.
4r	.
8r	.
=740	=740
2.r	.
=741	=741
8r	.
(8dd	.
8cc#	.
8ddL)	.
8gg	.
8ff#	.
=742	=742
8eeL	.
8dd	.
8cc	.
8bL	.
8cc	.
8a	.
=743	=743
4g	.
8r	.
4r	.
8r	.
=744	=744
(2.b	sf
=745	=745
8aL)	.
(8aa	.
8gg#	.
8aaL)	.
8aa	.
8gg	.
=746	=746
8ff#L	.
8ff#	.
8ee	.
8dd#L	.
8ee	.
8ff#	.
=747	=747
4b	.
8r	.
4r	.
8r	.
=748	=748
(2.g	sf
=749	=749
8f#L)	.
(8ff#	.
8ee#	.
8ff#L)	.
8ff#	.
8ee	.
=750	=750
8ddL	.
8dd	.
8cc#	.
8bL	.
8b	.
8b	.
=751	=751
4b	.
8r	.
[4.dd	sf
=752	=752
2.dd	.
=753	=753
4b	.
8r	.
[4.dd	sf
=754	=754
(4.dd	.
4cc#)	.
8r	.
=755	=755
4ee	.
8r	.
[4.gg	sf
=756	=756
2.gg	.
=757	=757
4ee	.
8r	.
[4.gg	sf
=758	=758
4.gg	.
4ff#	.
8r	.
=759	=759
2.r	.
=760	=760
4A	.
8r	.
[4.c	sf
=761	=761
4.c	.
4A	.
8r	.
=762	=762
(4.c	.
4B)	.
8r	.
=763	=763
4g	.
8r	.
[4.d [4.b	ff
=764	=764
[2.d [2.b	.
=765	=765
8dL 8b	p
8d	.
8d	.
8dL	.
8d	.
8d	.
=766	=766
8eL	.
8e	.
8e	.
8eL	.
8e	.
8e	.
=767	=767
4d	.
8r	.
[4.d [4.dd	ff
=768	=768
2.d 2.dd	.
=769	=769
8dL	.
8d	.
8d	.
8dL	.
8d	.
8d	.
=770	=770
8eL	.
8e	.
8e	.
8eL	.
8e	.
8e	.
=771	=771
4d	.
8r	.
8bL	pp
8cc#	.
8dd	.
=772	=772
8eeL	.
8dd	.
8cc#	.
8cc#L	.
8dd	.
8ee	.
=773	=773
8ddL	.
8cc#	.
8b	.
8ddL	.
8cc#	.
8b	.
=774	=774
4f#	.
8r	.
8eeL	.
8dd	.
8cc#	.
=775	=775
4f#	.
8r	.
8ddL	.
8cc#	.
8b	.
=776	=776
8bL	.
8a	.
8g#	.
8G#L	.
8A	.
8B	.
=777	=777
4c	.
8r	.
8aL	.
8b	.
8cc	.
=778	=778
8ddL	.
8cc	.
8b	.
8bL	.
8cc	.
8dd	.
=779	=779
8ccL	.
8b	.
8a	.
8ccL	.
8b	.
8a	.
=780	=780
4e	.
8r	.
8ddL	.
8cc	.
8b	.
=781	=781
4e	.
8r	.
8ccL	.
8b	.
8a	.
=782	=782
8aL	.
8g	.
8f#	.
8dL	.
8d	.
8d	.
=783	=783
4B	.
8r	.
8gL	pp
8a	.
8b	.
=784	=784
8ccL	.
8b	.
8a	.
8aL	.
8b	.
8cc	.
=785	=785
8bL	.
8a	.
8g	.
8bL	.
8a	.
8g	.
=786	=786
4d	.
8r	.
8ccL	.
8b	.
8a	.
=787	=787
4d	.
8r	.
4r	.
8r	.
=788	=788
8r	.
8r	.
8b	pp
4g	.
8g	.
=789	=789
[2.g	.
=790	=790
4g	.
8b	.
4g	.
8g	.
=791	=791
[2.g	.
=792	=792
4g	.
8b-	.
4g	.
8g	.
=793	=793
[2.g	.
=794	=794
4g	.
8b-	.
4g	.
8g	.
=795	=795
[2.g	.
=796	=796
4g	.
8b	.
4g	.
8g	.
=797	=797
[2.g	.
=798	=798
4g	.
[8g	.
4g	.
8g	.
=799	=799
!LO:TX:t=smor    -         -       -           -	!
[2.g	.
=800	=800
4g	.
[8g	.
4g	.
8g	.
=801	=801
!LO:TX:t=zan	!
[2.f	.
=802	=802
4f	.
[8f	.
4f	.
(8f	.
=803	=803
[2.d)	.
=804	=804
4d	.
[8d	.
4d	.
8d	.
=805	=805
[2.c#	pp
=806	=806
4c#	.
[8c#	.
4c#	.
(8c#	.
=807	=807
8c#L)	.
(8a	ff
8g#)	.
8aL	.
(8a	.
8g#	.
=808	=808
8aL)	.
8b	.
8a	.
8gL	.
8e	.
8d	.
=809	=809
!LO:TX:t=f	!
4d	.
8r	p
4r	.
8r	.
=810	=810
2.r	.
=811	=811
2.r	.
=812	=812
4r	.
8r	.
8r	.
(8dd	p
8cc#)	.
=813	=813
8ddL	.
(8b	.
8a#)	.
8bL	.
(8g	.
8f#	.
=814	=814
8gL)	.
(8e	.
8d#	.
8eL)	.
8f#	.
8g	.
=815	=815
8aL	.
8b	.
8cc#	.
8ddL	.
8ee	.
8ff#	.
=816	=816
4gg	.
8r	.
8r	.
(8ff#	.
8ee#)	.
=817	=817
(8ff#L	.
8gg)	.
8aa	.
4aa	.
8aa	.
=818	=818
(4.aa	.
8ggJ)	.
(qqbb	.
8aaL	.
8gg#)	.
=819	=819
(8aaL	.
8bb)	.
8ccc	.
4ccc	.
8ccc	.
=820	=820
(4.ccc	.
8bbJ)	.
(qqaa	.
8ggL	.
8ff#)	.
=821	=821
!LO:TX:t=cresc.	!
(8ggL	<
8aa)	.
8bb	.
4bb	.
8bb	[
=822	=822
(4.bb-	sf
4aa)	.
[8aa	.
=823	=823
4aa	.
[8gg	.
4gg	.
[8ee	.
=824	=824
(4.ee	.
4ff#)	.
8r	.
=825	=825
2.r	.
=826	=826
(4.d#t	sf
qqc#)	.
qqd#	.
4e	.
8r	.
=827	=827
2.r	.
=828	=828
(4.f#t	sf
qqe)	.
qqf#	.
8gL	.
(8ee	.
8dd#)	.
=829	=829
(8eeL	.
8ff#)	.
8gg	.
8ggL	.
8gg	.
8gg	.
=830	=830
(4.gg	sf
4cc#)	.
8r	.
=831	=831
(8ggL	sf
8cc#)	.
8r	.
(8ggL	sf
8cc#)	.
8r	.
=832	=832
(8ggL	.
[4cc#)	sf
4cc#	.
[8dd#	.
=833	=833
4dd#	.
[8ee	.
4ee	.
8cc#	.
=834	=834
8ddL	.
8A	p
8A	.
8dL	.
8A	.
8A	.
=835	=835
8eL	.
8A	.
8A	.
8eL	.
8A	.
8A	.
=836	=836
8f#L	.
8A	.
8A	.
8dL	.
8f#	.
8f#	.
=837	=837
8dL	.
8e	.
8e	.
8eL	.
8g	.
8g	.
=838	=838
4f#	.
8r	.
4r	.
8r	.
=839	=839
4r	.
8r	.
!LO:TX:t=cresc.	!
4e	<
8a	.
=840	=840
(8aL	.
8g)	.
8f#	.
(8f#L	.
8e)	.
8d	.
=841	=841
(8dL	.
8c#)	.
8B	.
(8BL	f
8A)	.
8G	.
=842	=842
8AL	.
8A	.
8A	.
8BL	.
8e	.
8e	.
=843	=843
4d	[
8r	.
(4.g	p
=844	=844
4.f#	.
4.cc#	.
=845	=845
4.dd	.
4.cc#	.
=846	=846
4.a)	.
(4.g#	sf
=847	=847
4e)	.
8r	.
(4.cc#	.
=848	=848
4.dd	.
4.b-	.
=849	=849
4.a	.
4.c#	.
=850	=850
4.d)	.
(4.d	sf
=851	=851
8c#L)	.
(8e	.
8f	.
8eL)	.
8f	.
8e	.
=852	=852
8gL	sf
(8f#	.
8g	.
8f#L)	.
8g	.
8f#	.
=853	=853
8b-L	sf
(8a	.
8b-	.
8aL)	.
8b-	.
8a	.
=854	=854
(8ccL	.
8b)	.
8b	.
(8ddL	.
8cc#)	.
8cc#	.
=855	=855
!LO:TX:t=cresc.	!
(8ee-L	<
8dd)	.
8dd	.
(8ffL	.
8ee)	.
8ee	.
=856	=856
(8ggL	.
8ff#)	.
8ff#	.
(8aaL	.
8gg)	.
8gg	[
=857	=857
8ff#L	p
8ff#	.
8ff#	.
(8ff#L	.
8ee#	.
8ff#)	.
=858	=858
8ggL	.
8gg	.
8gg	.
(8ggL	.
8ff#	.
8gg)	.
=859	=859
8ff#L	.
8a	.
8a	.
8aL	.
8a	.
8a	.
=860	=860
8aL	.
8dd	.
8dd	.
8ddL	.
8dd	.
8dd	.
=861	=861
8cc#L	.
8a	.
8a	.
8cc#L	.
8a	.
8a	.
=862	=862
8ddL	.
8a	.
8a	.
8eeL	.
8a	.
8a	.
=863	=863
8ddL	.
8a	.
8a	.
8gL	.
8b	.
8g	.
=864	=864
8f#L	.
8a	.
8f#	.
8eL	.
8g	.
8e	.
=865	=865
8AL 8f#	.
8A 8f#	.
8A 8f#	.
8AL 8f#	.
8A 8f#	.
8A 8f#	.
=866	=866
8AL 8g	.
8A 8g	.
8A 8g	.
8AL 8g	.
8A 8g	.
8A 8g	.
=867	=867
8AL 8f#	.
8a	.
8a	.
8aL	.
8a	.
8a	.
=868	=868
8aL	.
8a	.
8a	.
8aL	.
8a	.
8a	.
=869	=869
8aL	.
8f#	.
8f#	.
8f#L	.
8f#	.
8f#	.
=870	=870
8gL	.
8g	.
8g	.
8aL	.
8a	.
8a	.
=871	=871
8bL	.
8d	.
8d	.
8f#L	.
8d	.
8d	.
=872	=872
8gL	.
8d	.
8d	.
8aL	.
8d	.
8d	.
=873	=873
8bL	.
8dd	.
8dd	.
!LO:TX:t=cresc.	!
8ff#L	<
8dd	.
8dd	.
=874	=874
8ggL	.
8dd	.
8dd	.
8aaL	.
8dd	.
8dd	.
=875	=875
8ggL	.
8dd	.
8dd	.
8ggL	.
8dd	.
8dd	.
=876	=876
8ff#L	.
8dd	.
8dd	.
8ffL	.
8dd	.
8dd	.
=877	=877
4cc#	f
8r	.
4r	.
8r	.
=878	=878
4d	f
8r	.
4r	.
8r	.
=879	=879
4e	f
8r	.
4r	.
8r	.
=880	=880
4r	.
8r	.
8AL	ff
8A	.
8A	.
=881	=881
!LO:TX:t=dol.	!
4B-	.
8r	.
4.r	.
=882	=882
2.r	.
=883	=883
4r	.
8r	.
4r	.
(8dd	p
=884	=884
qqff	.
4ee-	.
8dd	.
4ee-	.
8ff)	.
=885	=885
4dd	.
8r	.
4r	.
(8dd	.
=886	=886
qqff	.
4ee-	.
8dd	.
4ee-	.
8ff)	.
=887	=887
4dd	.
8r	.
4r	.
8r	.
=888	=888
(2.G#	ff
=889	=889
8AL)	.
8f#	.
8f#	.
8f#L	.
8f#	.
8f#	.
=890	=890
8f#L	.
8f#	.
8f#	.
8gL	.
8g	.
8g	.
=891	=891
4f#	.
8ff	pp
4bb-	.
8r	.
=892	=892
(2.A-	ff
=893	=893
4G)	.
8r	.
4G 4e- 4b-	.
8r	.
=894	=894
4r	.
8r	.
4G# 4f 4dd	.
8r	.
=895	=895
4r	.
8r	.
4A 4f# 4dd	.
8r	.
=896	=896
4r	.
8r	.
4A 4e 4cc#	.
8r	.
=897	=897
4r	.
8r	.
8r	.
8g	.
8g	.
=898	=898
4f#	.
8r	.
8r	.
8cc#	.
8cc#	.
=899	=899
4dd	.
8r	.
8r	.
8gg	.
8gg	.
=900	=900
4ff#	.
8r	.
8r	.
8g	.
8g	.
=901	=901
4f#	.
8r	.
8r	.
8cc#	.
8cc#	.
=902	=902
4dd	.
8r	.
8r	.
8cc#	.
8cc#	.
=903	=903
4dd	p
8r	.
(4.ee	.
=904	=904
4.dd	.
4.cc	.
=905	=905
!LO:TX:t=cresc.	!
4.b	<
4.a	.
=906	=906
4.g	.
4.f#	.
=907	=907
4.e	.
4.d	.
=908	=908
4.c#	.
4.c)	.
=909	=909
[2.c	f
=910	=910
2.c	.
=911	=911
[2.c#	f
=912	=912
2.c#	.
=913	=913
2.d#	f
=914	=914
2.d#	f
=915	=915
2.e	f
=916	=916
2.c# 2.e	f
=917	=917
2.c#	p
=918	=918
[2.cc#	.
=919	=919
(4.cc#	.
4.a#)	.
=920	=920
[2.b	.
=921	=921
2.b	.
=922	=922
[2.a	.
=923	=923
4.a	.
4.f#	.
=924	=924
[2.g	.
=925	=925
!LO:TX:t=cresc.	!
4.g	<
4.e#	.
=926	=926
4.f#	.
4.f#	.
=927	=927
4.g	.
4.g#	.
=928	=928
4.a	.
8a#L	.
8a#	.
8a#	.
=929	=929
8bL	.
8b	.
8b	.
8cc#L	.
8cc#	.
8cc#	.
=930	=930
8ddL	.
8aa	.
8aa	.
8aaL	.
8d	.
8d	.
=931	=931
2.c#t	f
=932	=932
2.cc#t	.
=933	=933
4dd	.
8r	.
4.r	.
=934	=934
2.r	.
=935	=935
2.r	.
=936	=936
2.r	.
=937	=937
2.dd	sf
=938	=938
[2.ddd	sf
=939	=939
4.ddd	.
4ccc#	.
8bb	.
=940	=940
4aa	.
8gg	.
4ff#	.
8ee	.
=941	=941
4dd	.
8r	.
4r	.
8r	.
=942	=942
4r	.
8r	.
4e	.
8r	.
=943	=943
[4.ee	sf
4ee	.
8dd	.
=944	=944
4cc#	.
8b	.
4a	.
8g	.
=945	=945
8f#L	.
(8dd	.
8cc#	.
8ddL)	.
(8b	.
8a#)	.
=946	=946
8bL	.
(8g	.
8f#	.
8gL)	.
(8e	.
8d#	.
=947	=947
8eL)	.
8f#	.
8g	.
8aL	.
8b	.
8cc#	.
=948	=948
8ddL	.
8ee	.
8ff#	.
8ggL	.
8gg	.
8gg	.
=949	=949
8ff#L	ff
(8dd	.
8cc#	.
8ddL)	.
8dd	.
8dd	.
=950	=950
8r	.
(8dd	.
8cc#	.
8ddL)	.
8dd	.
8dd	.
=951	=951
8r	.
(8dd	.
8cc#	.
8ddL)	.
8dd	.
8dd	.
=952	=952
8r	.
(8a	.
8g#	.
8aL)	.
8a	.
8a	.
=953	=953
4a	.
8r	.
4r	.
8r	.
=954	=954
(2.c#	p
=955	=955
4d)	.
8r	.
4r	.
8r	.
=956	=956
(2.cc#	.
=957	=957
4dd)	.
8r	.
4r	.
8r	.
=958	=958
2.r	.
=959	=959
4r	.
8r	.
8r	.
(8d	pp
8c#	.
=960	=960
4d)	.
8r	.
8r	.
(8d	.
8c#	.
=961	=961
4d)	.
8r	.
4r	.
8r	.
=962	=962
4r	.
8r	.
8r	.
==	==
*-	*-
